X:1
T:Hermosa blanca nube
T:José de Torres y Martinez Bravo [1665-1738]
T:From a printed edition dated 1714 in the archive of Guatemala Cathedral
T:Hermosa blanca nube
T:Cantada al Santísimo
T:Copyright © 
T:Copyright © 
T:Copyright © 
T:Copyright © 
T:Copyright © 
T:Copyright © 
T:Copyright © 
T:Copyright © 
T:Copyright © 
T:Copyright © 
T:Copyright © 
T:Copyright © 
T:Copyright © 
T:Copyright © 
T:Copyright © 
T:Copyright © 
C:José de Torres y Martinez Bravo [1665-1738]
Z:From a printed edition dated 1714
Z:in the archive of Guatemala Cathedral
Z:Copyright ©
%%score 1 { 2 | 3 }
L:1/8
M:4/4
K:F
V:1 treble nm="P1" snm="S."
V:2 treble nm="Continuo" snm="Cont."
V:3 bass 
V:1
"^Recitado" z2 z A ffff | A>G AB cc z G/A/ | B2 B>A AA z c | A>A Bc FFGA | BB z F/F/ B2 BB | %5
w: Her- mo- sa blan- ca|nu- be,\_ob- scu- ra nie- ve, de quien|es cen- tro\_her- mo- so di-|vi- no\_e- se vi- ril, que mi- la|gro- so. so- be- ra- no\_es- plen-|
w: |||||
 FF F>G GG z B | G>G AB cc z G | B>B BA AA z A | EEEF GG G>F | FF z A FFGA | BB z2 FF z/ F/F/G/ | %11
w: dor que\_ex- ha- las, be- be, per-|mi- te que mi llan- to, si-|guien- do bri- llar tan- to, cuan-|do\_es su Nor- te, tan glo- rio- sa\_ho-|gue- ra, a ser lle- gue\_en tu\_es-|fe- ra, go- zo, que\_ha de lo-|
w: ||||||
 _AA A>G GG z D/_E/ | F2 F>_E E2 z _e | AF (B4 BA) | B8 ||[M:3/4]"^Area" z6 | z6 | z6 | z6 | z6 | %20
w: grar ser pe- re- gri- no, si\_an- tes,|llan- to, do- lor, y|pe- na vi- * *|.||||||
w: |||||||||
 z6 | z6 | z6 | z6 | G2 (GA) B2 | A2 (AB) c2 | B2 (Bc) d2 | A6 | z6 | z4 d2 | (BA) (Bc) (de) | %31
w: ||||Un nue- * vo\_a-|lien- to _ hoy|co- bra\el _ do-|lor||si-|guien- * do\el _ al- *|
w: |||||||||||
 f2 z2 c2 | (dc) B2 z2 | z4 A2 | (BA) G2 z2 | z4 f2 | (gf) _e2 (fe) | (dc) c3 B | B6 | z6 | %40
w: bor, que\_a-|plau- * de|mi\_a-|cen- * to,|que\_a-|plau- * de mi\_a- *|cen- * * *|to,||
w: |||||||||
 z4 f2- | f2 gf gf | _e2 e2 z e | _e2 fe fe | d2 z2 d2 | d2 _ed ed | c2 z2 c2 | c2 (dc) (dc) | %48
w: un|_ nue- * vo\_a- *|lien- to hoy|co- bra\el _ do- *|lor, si-|guien- do\el _ al- *|bor, que\_a-|plau- de _ mi\_a- *|
w: ||||||||
 (B2 Bc d2) | z2 ^FG A2 | z2 GA B2 | z2 AB c2 | z2 Bc d2- | d2 A4 | z6 | z4 d2 | (_ed) c2 (dc) | %57
w: cen- * * *|||||* to,||que\_a-|plau- * de mi\_a- *|
w: |||||||||
 (BA A3 G) | !fermata!G6 || z6 | z6 | z6 | d3 d ef | B2 B2 d2 | G2 (GA) B2 | A4 z2 | z6 | z6 | %68
w: cen- * * *|to.||||Con que mi con-|ten- to que\_an-|he- la\a _ ge-|mir,|||
w: |||||||||||
 z4 A2 | G2 (GA) B2 | A4 c2- | cc =B3 B | c2 c2 z2 | z6 | z6 | z4 _e2 | c2 (cd) _e2 | d2 (de) f2 | %78
w: po-|drá con- * se-|guir, pu-|* ro tal por-|ten- to|||si|no\_es que _ san-|grien- to[?] _ pre-|
w: ||||||||||
 A2 (AB) c2 | B2 z2 d2 | G2 (GA) B2 | A6 | z6 | z2 f3 e | d6- | d6- | d6 | z6 | z2 _e3 d | %89
w: ten- do _ ne-|gar, la|luz que\a _ guí-|ar,||se\_o- fre-|ció,|_|||se\_o- fre-|
w: |||||||||||
 ^c2 d2 d2- | d2 d3 (^c | d6) ||[M:4/4]"^Recitado" z2 FF B2 Bc | d>c d>e ff z c/f/ | %94
w: ció mi in-|* ten- to|_|Ay de mí, si no|si- gue mi fi- ne- za, de\_e- sa|
w: |||||
 B2 B>A AA z c | A>A Bc F>F GA | BB z B d>c BA | GGAB BF z B | d2 z2 AAAB | cc z c _e>e dc | %100
w: luz la be- lle- za, que\_en|nu- be,\_y nie- ve, pro- di- go pro-|po- ne quien tan fe- liz ca-|mi- no me dis- po- ne, y\_a-|sí\_en su ar- dor bri-|llan- te, fi- jar la vis- ta\_e-|
w: ||||||
 BB z d B>B cd | =BB B>c cc z/ G/G/A/ | B3 A AA z A | F>F GA ^FF F>G | GG z D/E/ F2 F>E | %105
w: rran- te, pre- ten- de\_el co- ra-|zón, ba- jo\_el in- cier- to. por- que lle-|gan- do\_al puer- to, don-|de se- gu- ri- dad un dios le\_ad-|vier- te, se po- drá fiel li-|
w: |||||
 E2 z e ^cA z f | ^c (=B/A/) (d4 dc) | d8 ||[K:C]"^Area" z8 | z8 | z8 | z8 | z4 z f e>d | %113
w: brar de\_e- ter- na, de\_e-|ter- na _ muer- * *|te.|||||Se- guir lu-|
w: ||||||||
 e2 A2 z d c>_B | c2 F2 z _B A>G | (A2 D2) z G F>E | F>G A>B c>B c>d | e4 z2 z d | c2 (BA) A4 | %119
w: cien- te, tan sa- cro\_O-|rien- te, quie- re mi\_a-|mor, _ con que lo-|grar po- drá\_el fa- vor mas su- per-|ior, mas|su- pe- * rior,|
w: ||||||
 z8 | z8 | z8 | z4 z ded | (cB) A2 z BcB | (AG) F2 z GAG | F2 z2 z efe | d>d c_B c>c dc | %127
w: |||se- guir lu-|cien- * te, tan sa- cro\_O-|rien- * te quie- re mi\_a-|mor, con que lo-|grar, po- drá\_el fa- vor mas su- pe-|
w: ||||||||
 _B4 z BcB | A4 z A_BA | G4 z GAG | F4 z4 | z2 z G F2 E2 | D4 z4 | z8 | z8 | z8 | z4 z def | %137
w: rio- * * *|||r,|mas su- pe-|rior.||||Ay al- ma|
w: ||||||||||
 _B4 z G A>B | G4 z4 | z G A>_B A4 | z A =B>c B4 | z B c>d c>c de | d8 | z f e>d cB cd | %144
w: ven, pues que tal|bien,|el ce- les- tial,|te da\_in- mor- tal,|go- zo ma- yor por tu do-|lor,|go- zo ma- yor, _ por _|
w: |||||||
 c2 B>A A4 | z A !courtesy!_B>c B4 | z G A>_B A4 | z E F>G F2 F2 | z d!courtesy!_ef e2 e2 | %149
w: tu do- * lor,|no\_es in- fe- liz,|hom- bre fe- liz,|que fi- no\_es- pi- ra,|y\_ar- dien- te pi- ra,|
w: |||||
 z c d>_e d>d ef | _B8 | z d c>_B (A>G) (AB) | A2 (G>F) F4 ||[K:F]"^Recitado" z2 z A c2 z/ c/d/e/ | %154
w: es to- do\_ar- dor, en el se-|ñor,|es to- do\_ar- dor, _ en _|el se- * ñor.|Mor- tal, si- gue\_a tu|
w: |||||
 f2 z/ F/A/=B/ cc z c | GGGA BB z B | BBBB B>B AG | FF z A/A/ D2 EF | GG z G DDDE | FF F>E EE z c | %160
w: Dios, que\_en- tre can- do- res te\_in-|di- ce\_a sus fa- vo- res, en|la ne- va- da\_an- tor- cha de\_e- sa\_o-|ble- a, hom- bre ven, si de-|se- a lo- grar tu fe, de-|jan- do la\_a- mar- gu- ra, la|
w: ||||||
 G>G AB AFAB | cG z2 ||[M:3/4]"^Area grave" z6 | z6 | z6 | z6 | z2 f2 A2 | c3 G AB | (AG) F2 z2 | %169
w: luz que ce- les- tial, to- do\_es dul-|zu- ra.|||||San- ta|luz es la que|quie- * re,|
w: |||||||||
 z6 | z6 | z6 | z2 f2 A2 | c6- | c6- | c6 | z2 c2 A2 | d3 A Bc | (BA) G2 z2 | z6 | z6 | z6 | %182
w: |||e- sa|luz,|_||el a-|mor que se de-|sue- * la,||||
w: |||||||||||||
 z2 B2 G2 | _e3 d ce | (dG) G2 z2 | (_ef) (ed) (cB) | (AG) F2 z2 | (d>_e) (dc) (BA) | %188
w: y\_a- bra-|sar- se no re-|ce- * la,|si _ cuan- * do _|mue- * re,|si _ cuan- * do _|
w: ||||||
 (GF) (GA) (Bc) | (dc c3 B) | B4 z2 | z2 d2 A2 | B3 A GB | (AD) D2 z2 | (B>c) (BA) (GF) | %195
w: mue- * re, _ no _|mue- * * *|re,|y\_a- bra-|sar- se no re-|ce- * la,|si _ cuan- * do _|
w: |||||||
 (ED) C2 z2 | (A>B) (AG) (FE) | (DC) (DE) (FG) | (AG) G3 F | !fermata!F6 || z6 | z6 | z6 | z6 | %204
w: mue- * re,|si _ cuan- * do _|mue- * re, _ no _|mue- * * *|re.|||||
w: |||||||||
 f2 df f2 | f2 (cd) _e2 | (dc) B2 z2 | z2 z2 c2 | d2 (Bc) d2 | d2 (AB) c2 | (BA) G2 z2 | z6 | %212
w: Es- te es- plen-|dor que _ re-|ci- * be,|de|nu- ve, _ y|nie- ve _ mi|vi- * da,||
w: ||||||||
 B2 (GA) B2 | B2 (cB) (cB) | A2 (FG) A2 | A2 (BA) (BA) | G2 (AG) AG | F>E FG FG | E4 z2 | %219
w: ha- ce _ que\_es-|te mas _ ren- *|di- da, _ pues|vi- ve _ lo _|que no _ vi- *||ve,|
w: |||||||
 z2 z2 f2 | f2 _e3 d | ^c2 d2 (d2- | d2 d3 ^c) | d6 |:[M:3/4]"^Coplas alegres" z6 | z6 | z6 | z6 | %228
w: pues|vi- ve lo|que no vi-||ve.|||||
w: |||||||||
 z6 | z6 | z6 | z6 | f3 e d2 | c2 _e4 | d3 c B2 | A2 c4 | B4 A2- | A2 z2 z2 | z6 | G3 F _E2 | %240
w: ||||Pues e- sa|luz me|guí- a, cuan-|do me\_a-|bra- sa,|_||ya por es-|
w: ||||Nie- ve,\_y nu-|be\_a los|o- jos Dios|me pre-|pa- ra,|_||por- que\_en el|
 D2 F4 | !courtesy!_E3 (D C2) | z6 | c3 B A2 | G2 B4 | A3 G F2 | !courtesy!_E2 G4 | F3 (_E D2) | %248
w: te ca-|mi- no, _||ya por es-|te ca-|mi- no, se\_a-|lien- ta\_el|al- ma, _|
w: hie- lo\_a-|li- vie, _||por- que\_en el|hie- lo\_a-|li- vie, su\_ac-|ti- va|lla- ma, _|
 z6 | z6 | z2 z2 B2 | B4 A2- | A2 G4 | F6 :|"^CoplasGrave." z2 d3 d | d2 ^c3 =B | ^c2 d4 | %257
w: ||se\_a-|lien- ta\el|_ al-|ma.|Y\_a vi-|vir me con-|du- cen,|
w: ||su\_ac-|ti- va|_ lla-|ma.||||
 z2 E2 G2- | G2 F2 A2- | A2 G4 | A4 z2 | z2 d3 c | (=BA) G2 z c | c2 c3 =B | c2 c2 z2 | z2 c3 B | %266
w: si- en-|* zas[?] tan-||tas,|no\_a- vrá|go- * zo ma-|yor que mi|pe- na,|ni de-|
w: |||||||||
 AG F2 z B | B2 B3 A | B4 G2- | G2 cB AG | F2 BA GF | E4 c2- | c2 dcBA | A2 G4 | F12 |] %275
w: li- * cia ma-|yor que mis|an- zias,|_ ni _ de- *|li- cia _ ma- *|yor que|_ mis _ _ _|an- *|zias.|
w: |||||||||
V:2
 z8 | z8 | z8 | z8 | z8 | z8 | z8 | z8 | z8 | z8 | z8 | z8 | z8 | z8 | z8 ||[M:3/4] z6 | z6 | z6 | %18
 z6 | z6 | z6 | z6 | z6 | z6 | z6 | z6 | z6 | z6 | z6 | z6 | z6 | z6 | z6 | z6 | z6 | z6 | z6 | %37
 z6 | z6 | z6 | z6 | z6 | z6 | z6 | z6 | z6 | z6 | z6 | z6 | z6 | z6 | z6 | z6 | z6 | z6 | z6 | %56
 z6 | z6 | z6 || z6 | z6 | z6 | z6 | z6 | z6 | z6 | z6 | z6 | z6 | z6 | z6 | z6 | z6 | z6 | z6 | %75
 z6 | z6 | z6 | z6 | z6 | z6 | z6 | z6 | z6 | z6 | z6 | z6 | z6 | z6 | z6 | z6 | z6 || %92
[M:4/4][K:treble] z2 FF B2 Bc | d>c d>e ff z c/f/ | B2 B>A AA z c | A>A Bc F>F GA | BB z B d>c BA | %97
 GGAB BF z B | d2 z d AAAB | cc z c _e>e dc | BB z d B>B cd | =BB B>c cc z G | BBBA AA z A | %103
 F>A GA ^FF F>G | GG z D/E/ F2 F>E | E2 z e ^cA z f | ^c=B/A/ d4 dc | d8 ||[K:C] z8 | z8 | z8 | %111
 z8 | z8 | z8 | z8 | z8 | z8 | z8 | z8 | z8 | z8 | z8 | z8 | z8 | z8 | z8 | z8 | z8 | z8 | z8 | %130
 z8 | z8 | z8 | z8 | z8 | z8 | z8 | z8 | z8 | z8 | z8 | z8 | z8 | z8 | z8 | z8 | z8 | z8 | z8 | %149
 z8 | z8 | z8 | z8 ||[K:F] z2 z A c2 z/ c/d/e/ | f2 z/ F/ A/=B/ cc z c | GGGA BB z B | %156
 BBBB B>B AG | FF z A/A/ D2 EF | GG z G DDDE | FF F>E EE z c | G>G AB AFAB | cG z2 ||[M:3/4] z6 | %163
 z6 | z6 | z6 | z6 | z6 | z6 | z6 | z6 | z6 | z6 | z6 | z6 | z6 | z6 | z6 | z6 | z6 | z6 | z6 | %182
 z6 | z6 | z6 | z6 | z6 | z6 | z6 | z6 | z6 | z6 | z6 | z6 | z6 | z6 | z6 | z6 | z6 | z6 || z6 | %201
 z6 | z6 | z6 | z6 | z6 | z6 | z6 | z6 | z6 | z6 | z6 | z6 | z6 | z6 | z6 | z6 | z6 | z6 | z6 | %220
 z6 | z6 | z6 | z6 |:[M:3/4] z6 | z6 | z6 | z6 | z6 | z6 | z6 | z6 | z6 | z6 | z6 | z6 | z6 | z6 | %238
 z6 | z6 | z6 | z6 | z6 | z6 | z6 | z6 | z6 | z6 | z6 | z6 | z6 | z6 | z6 | z6 :| z6 | z6 | z6 | %257
 z6 | z6 | z6 | z6 | z6 | z6 | z6 | z6 | z6 | z6 | z6 | z6 | z6 | z6 | z6 | z6 | z6 | z12 |] %275
V:3
 F,8 | F,4 E,4- | E,4 F,4- | F,8 | D,8- | D,4 _E,4- | E,4"^6" =E,4- |"^5" E,4 ^C,4- | C,8 | D,8 | %10
 B,,8- | B,,4 =B,,4- | B,,4 C,4 | F,_E,D,"^6"E,"^43" F,2 F,,2 | B,,8 ||[M:3/4] G,,2 G,A, B,2 | %16
 ^F,2 D,2 F,2 | G,2 B,C D2 | A,2 F,2 A,2 | B,2 DE F2 | =B,2 G,2 B,2 | CD _E2 ^F,2 | G,C, D,2 D,,2 | %23
 G,,4 z2 | G,4 z2 | D,4 z2 | G,,2 G,A, B,2 | ^F,2 D,2 F,2 | G,2 B,C D2 | ^F,2 D,2 F,2 | %30
 G,,2 G,A, B,2 | A,2 F,2 A,2 | B,,2 B,C D2 | ^F,2 D,2 F,2 | G,,2 G,A, B,2 | D,2 B,,2 D,2 | %36
 _E,F, G,2 A,,2 | B,,_E, F,2 F,,2 | B,,2 B,C D2 | A,2 F,2 A,2 | B,2 DE F2 | =B,2 G,2 B,2 | %42
 C,2 CD _E2 | A,2 F,2 A,2 | B,,2 B,C D2 | G,2 _E,2 G,2 | A,,2 A,"^3"B, C2 | ^F,2 D,2 F,2 | G,4 z2 | %49
"^6" A,4 z2 |"^6" B,4 z2 | ^F,4 z2 | G,,2 G,A, B,2 | ^F,2 D,2 F,2 | G,2 B,C D2 | =B,2 G,2 B,2 | %56
 CD _E2 ^F,2 | G,E, D,2 D,,2 | !fermata!G,,6 || B,,2 B,C D2 | A,2 F,2 A,2 | B,_E, F,2 F,,2 | %62
 B,,4 z2 | G,,4 z2 |"^6" E,,4 z2 | F,,2 F,G, A,2 | E,2 C,2 E,2 | F,B,, C,2 C,,2 | F,,4 z2 | %69
 E,4 z2 | F,4 z2 |"^76x" D,4 z2 | C,2 CD _E2 | !courtesy!=B,2 G,2 B,2 | CF, G,2 G,,2 | C,4 z2 | %76
"^6" A,,4 z2 | B,,4 z2 | ^F,4 z2 | G,4 z2 | E,4 z2 | F,2 D,E, F,2 | ^C,2 A,,2 C,2 | D,6 | %84
 z2 G,A, B,2 | ^F,2 D,2 F,2 | G,2 B,C D2 | ^F,2 D,2 F,2 |"^6" G,6 |"^4x" G,2 F,3 G, | A,2 A,,4 | %91
 D,6 ||[M:4/4] B,8- | B,4 A,4 | G,4 F,4- | F,8 | D,8 | _E,4 F,2 B,,2 | ^F,8- | F,8 | G,8 | %101
 F,4 E,4- | E,4 F,4 | D,4 C,4 | =B,,8 | ^G,4"^64x" =G,2"^6" F,2 |"^6" E,2"^6" F,G, A,2 A,,2 | %107
 D,8 ||[K:C] D,>F E>D"^73" E2 A,2 | D,>D C>_B,"^7" C2 F,2 | %110
 !courtesy!_B,,>!courtesy!_B, A,>G,"^7" A,2 D,2 | G,,>G, F,>_E, F,>^C, D,>G, | A,2 A,,2 D2 D,2 | %113
"^43" A,2 A,,2 _B,2"^8""^43" _B,,2 | F,2 F,,2 G,2 G,,2 |"^44" D,2 D,,2 E,2 ^C,2 | %116
 D,>E, F,>G, A,>^G, A,>B, | C>B, C>D E>^G, A,D, | E,2 E,,2 A,,>C B,>A, | B,2 E,2 A,,>A, G,>F, | %120
 G,2 C,2 F,,>F, E,>D, | E,>^G, A,>D, E,2 E,,2 | A,,>C B,>A, B,2 E,2 | A,,>A, G,F, G,2 C,2 | %124
 F,,>F, E,D, E,2 A,,2 | D,,>D C>_B, C2 F,2 | _B,,>_B, A,G, A,2 D,2 | G,,>G, F,G, E,2 E,,2 | %128
 F,,>F, E,F, D,2 D,,2 | E,,>E, D,E, ^C,2 A,,2 | D,>E, F,>G, A,>G, A,B, | ^C>A, DG, A,2 A,,2 | %132
 D,>F E>D E2 A,2 | D,>D C>!courtesy!_B, C2 F,2 | _B,,>_B, A,G, A,2 D,2 | G,,>G, F,E, F,>C, D,G, | %136
 A,2 A,,2 !fermata!D,4 | G,,>G, A,_B, E,>C, F,_B,, | C,4 C,,>G, A,_B, |"^6" E,4 F,>A, _B,C | %140
"^6" ^F,4 G,>B, CD | ^G,4 A,4 | B,,>B, CD ^G,>G, A,B, | ^G,3 E, A,>G, A,D, | %144
"^65" E,2 E,,2 A,,>A, B,C | ^F,4"^3" G,,>G, A,_B, | E,4 F,,>F, G,A, | ^C,4 D,,>D, E,F, | %148
"^6" B,,4 C,CD!courtesy!_E |"^6" A,4 _B,4 | G,,>G, A,_B, E,>E, F,G, |"^6" E,3 C, F,>E, F,_B,, | %152
"^65" C,2 C,,2 F,,4 ||[K:F] F,8 | D,4 C,4- | C,8- | C,4 ^C,4 | D,8 | =B,,8- | B,,4 C,4 | E,4 F,4 | %161
 C,4 ||[M:3/4] F,2 F2 A,2 | C3 G, A,B, |"^43" A,3 E, F,G, | F,B,, C,2 C,,2 | F,,4 z2 | C,4 z2 | %168
 F,,2 F2 A,2 |"^43" C3 G, A,B, | A,3 E, F,G, | F,B, C2 C,2 | F,4 z2 | z2 E,2 C,2 | F,2 A,2 F,2 | %175
 C2 C,E, D,C, | F,4 z2 | ^F,4 z2 | G,2 B,2 G,2 |"^43" D3 A, B,C | B,3 ^F, G,A, | G,C, D,2 D,,2 | %182
 G,,4 z2 | A,,4 z2 | B,,4 z2 | C,4 z2 | F,3 _E, D,C, | B,,4 z2 | _E,4 z2 | B,,_E, F,2 F,,2 | %190
 B,,2 B,2 D2 | ^F,4 z2 | G,4 z2 | ^F,4 D,2 | G,4 G,,2 | C,3 B,, A,,G,, | F,,4 z2 | B,,4 z2 | %198
 F,B, C2 C,2 | !fermata!F,6 || D,2 D2 F,2 |"^43" A,3 E, F,G, | F,3 ^C, D,E, | D,G,, A,2 A,,2 | %204
 D,4 z2 |"^6" A,,4 z2 | B,2 B,,D, C,B,, | F,2 F,,A,, G,,F,, | B,,4 z2 | ^F,,4 z2 | G,,2 G,B, A,G, | %211
 D2 D,^F, E,D, | G,4 z2 | E,4 z2 | F,4 z2 | D,4 z2 | E,2"^98" ^C,4 | D,2 D,,4 | %218
 A,,2"^43x" A,^C =B,A, | D2 D,F, !courtesy!_E,D, |"^75""^5" G,2 G,,4 | A,,2 B,,4 | A,2 A,,4 | %223
 D,6 |:[M:3/4][K:treble] F3 E D2 | C2 _E4 | D3 C B,2 | A,2 C4 | B,3 A, G,2 | ^F,2 A,4 | %230
 G,3 E, F,2 | B,,2 C,4 | F,,4 z2 | A,,4 z2 | B,,4 z2 | ^F,,4 z2 | G,,4 z2 | D,,4 z2 | G,3 F, E,2 | %239
 D,2 F,4 |"^6" E,4 z2 | =B,,4 z2 | C3 B, A,2 | G,2 B,4 | A,4 z2 |"^6" E,4 z2 | %246
 F,3 !courtesy!_E, D,2 | C,2 _E,4 | D,3 C, B,,2 | A,,2 C,4 | B,,3 A,, G,,2 | E,,4 F,,2- | %252
 F,,2 E,4 | F,,6 :| D,6 | A,,6 | A,,2"^43x" D,3 D, | D,2 ^C,3 =B,, | ^C,2 D,4 |"^76x" B,,6 | %260
 A,,2 A,3 G, | ^F,2 D,2 F,2 | G,2 F,4 | F,2 G,4 | C,2 C3 B, | A,2 C,4 | F,3 _E, D,2 | _E,2 x2 x2 | %268
"^Continuo missing to bar 274" x6 | x6 | x6 | x6 | x6 | x6 | C,3 B,, C,4 C,,4 |] %275

